packages/kaspersky-hexa-ui-icons/src/iconsSVGs/12/PinOff.svg

<svg width="12" height="12" viewBox="0 0 12 12" fill="none" xmlns="http://www.w3.org/2000/svg">
<path fill-rule="evenodd" clip-rule="evenodd" d="M10.875 4.125C10.875 5.78185 9.53185 7.125 7.875 7.125C7.31864 7.125 6.79766 6.97355 6.35102 6.70964L2.40533 10.6553C2.11244 10.9482 1.63756 10.9482 1.34467 10.6553C1.05178 10.3624 1.05178 9.88756 1.34467 9.59467L5.29036 5.64898C5.02645 5.20234 4.875 4.68136 4.875 4.125C4.875 2.46815 6.21815 1.125 7.875 1.125C9.53185 1.125 10.875 2.46815 10.875 4.125ZM6.59226 2.84216C6.74846 2.68595 7.00173 2.68595 7.15794 2.84216L7.8751 3.55932L8.59226 2.84216C8.74846 2.68595 9.00173 2.68595 9.15794 2.84216C9.31415 2.99837 9.31415 3.25164 9.15794 3.40785L8.44078 4.12501L9.15794 4.84216C9.31415 4.99837 9.31415 5.25164 9.15794 5.40785C9.00173 5.56406 8.74846 5.56406 8.59226 5.40785L7.8751 4.69069L7.15794 5.40785C7.00173 5.56406 6.74846 5.56406 6.59226 5.40785C6.43605 5.25164 6.43605 4.99837 6.59226 4.84216L7.30941 4.12501L6.59226 3.40785C6.43605 3.25164 6.43605 2.99837 6.59226 2.84216Z" fill="black"/>
</svg>

<svg xmlns="http://www.w3.org/2000/svg" width="12" height="12" fill="none" viewBox="0 0 12 12"><path fill="#000" fill-rule="evenodd" d="M10.875 4.125c0 1.6569-1.3431 3-3 3a2.986 2.986 0 0 1-1.524-.4154l-3.9457 3.9457a.75.75 0 1 1-1.0606-1.0606L5.2904 5.649a2.986 2.986 0 0 1-.4154-1.524c0-1.6568 1.3431-3 3-3s3 1.3432 3 3M6.5923 2.8422a.4.4 0 0 1 .5656 0l.7172.7171.7172-.7171a.4.4 0 0 1 .5656.5656l-.7171.7172.7171.7172a.4.4 0 0 1-.5656.5656l-.7172-.7171-.7172.7172a.4.4 0 1 1-.5656-.5657l.7171-.7172-.7171-.7172a.4.4 0 0 1 0-.5656"/></svg>
